chrome/icons/location.svg

<svg height="16" viewBox="64 2 896 1023" width="16" xmlns="http://www.w3.org/2000/svg" xmlns:xlink="http://www.w3.org/1999/xlink">
  <path d="M64,447.5C64,406.167 69.3333,366.417 80,328.25C90.6667,290.083 105.667,254.417 125,221.25C144.333,188.083 167.667,158 195,131C222.333,104 252.583,80.9167 285.75,61.75C318.917,42.5834 354.583,27.75 392.75,17.25C430.917,6.75 470.667,1.5 512,1.5C553.333,1.5 593.167,6.75 631.5,17.25C669.833,27.75 705.583,42.5834 738.75,61.75C771.917,80.9167 802.083,104 829.25,131C856.417,158 879.667,188.083 899,221.25C918.333,254.417 933.333,290 944,328C954.667,366 960,405.833 960,447.5C960,477.833 957.083,507.583 951.25,536.75C945.417,565.917 936.75,594.083 925.25,621.25C913.75,648.417 899.667,674.333 883,699C866.333,723.667 847.167,746.667 825.5,768L601.5,987.5C589.5,999.167 575.833,1008.17 560.5,1014.5C545.167,1020.83 529,1024 512,1024C495,1024 478.833,1020.83 463.5,1014.5C448.167,1008.17 434.5,999.167 422.5,987.5L198.5,768C155.167,725.333 121.917,676.417 98.75,621.25C75.5833,566.083 64,508.167 64,447.5ZM512,959.5C529.333,959.5 544.333,953.5 557,941.5L781,722.5C818,686.167 846.417,644.167 866.25,596.5C886.083,548.833 896,499.167 896,447.5C896,412.167 891.417,378.083 882.25,345.25C873.083,312.417 860.167,281.833 843.5,253.5C826.833,225.167 806.833,199.417 783.5,176.25C760.167,153.083 734.333,133.25 706,116.75C677.667,100.25 647.083,87.5 614.25,78.5C581.417,69.5 547.333,65 512,65C476.667,65 442.583,69.5 409.75,78.5C376.917,87.5 346.333,100.333 318,117C289.667,133.667 263.833,153.583 240.5,176.75C217.167,199.917 197.167,225.667 180.5,254C163.833,282.333 150.917,312.917 141.75,345.75C132.583,378.583 128,412.667 128,448C128,473.667 130.583,499.083 135.75,524.25C140.917,549.417 148.417,573.667 158.25,597C168.083,620.333 180.167,642.583 194.5,663.75C208.833,684.917 225.167,704.5 243.5,722.5L467,941.5C473,947.5 479.833,952 487.5,955C495.167,958 503.333,959.5 512,959.5ZM320,448L320,444C320,418 325.167,393.583 335.5,370.75C345.833,347.917 359.833,328 377.5,311C395.167,294 415.583,280.583 438.75,270.75C461.917,260.917 486.333,256 512,256C538.667,256 563.667,261 587,271C610.333,281 630.667,294.667 648,312C665.333,329.333 679,349.667 689,373C699,396.333 704,421.333 704,448C704,474.667 699,499.667 689,523C679,546.333 665.333,566.667 648,584C630.667,601.333 610.333,615 587,625C563.667,635 538.667,640 512,640C485.333,640 460.333,635 437,625C413.667,615 393.333,601.333 376,584C358.667,566.667 345,546.333 335,523C325,499.667 320,474.667 320,448ZM640,448L640,445.5C640,428.167 636.5,411.917 629.5,396.75C622.5,381.583 613.167,368.333 601.5,357C589.833,345.667 576.25,336.667 560.75,330C545.25,323.333 529,320 512,320C494.333,320 477.75,323.417 462.25,330.25C446.75,337.083 433.25,346.25 421.75,357.75C410.25,369.25 401.083,382.833 394.25,398.5C387.417,414.167 384,430.667 384,448C384,465.667 387.417,482.25 394.25,497.75C401.083,513.25 410.25,526.75 421.75,538.25C433.25,549.75 446.75,558.917 462.25,565.75C477.75,572.583 494.333,576 512,576C529.333,576 545.833,572.583 561.5,565.75C577.167,558.917 590.75,549.75 602.25,538.25C613.75,526.75 622.917,513.25 629.75,497.75C636.583,482.25 640,465.667 640,448Z" fill="context-fill" fill-opacity="context-fill-opacity">
  </path>
</svg>

<svg xmlns="http://www.w3.org/2000/svg" width="16" height="16" viewBox="64 2 896 1023"><path fill="context-fill" fill-opacity="context-fill-opacity" d="M64 447.5q0-62 16-119.25t45-107T195 131t90.75-69.25 107-44.5T512 1.5t119.5 15.75 107.25 44.5 90.5 69.25T899 221.25 944 328t16 119.5q0 45.5-8.75 89.25t-26 84.5T883 699t-57.5 69l-224 219.5c-12 11.667-25.667 20.67-41 27S529 1024 512 1024s-33.167-3.17-48.5-9.5-29-15.333-41-27L198.5 768q-65-64-99.75-146.75T64 447.5m448 512q26 0 45-18l224-219q55.5-54.5 85.25-126t29.75-149q0-53-13.75-102.25T843.5 253.5t-60-77.25-77.5-59.5-91.75-38.25T512 65 409.75 78.5 318 117a390.8 390.8 0 0 0-77.5 59.75q-35 34.75-60 77.25t-38.75 91.75T128 448q0 38.5 7.75 76.25t22.5 72.75 36.25 66.75 49 58.75l223.5 219q9 9 20.5 13.5t24.5 4.5M320 448v-4q0-39 15.5-73.25t42-59.75 61.25-40.25T512 256q40 0 75 15t61 41 41 61 15 75-15 75-41 61-61 41-75 15-75-15-61-41-41-61-15-75m320 0v-2.5q0-26-10.5-48.75t-28-39.75-40.75-27T512 320q-26.5 0-49.75 10.25t-40.5 27.5-27.5 40.75T384 448q0 26.5 10.25 49.75t27.5 40.5 40.5 27.5T512 576q26 0 49.5-10.25t40.75-27.5 27.5-40.5T640 448"/></svg>
